X: 1
T: Hora Pe Gheatsa
O: Romania
Z: John Chambers <jc@eddie.mit.edu> http://eddie.mit.edu/~jc/music/
M: 2/2
L: 1/8
K: Em
|: "Em"(3^D2E2D2 E4 | (3^A2B2A2 B4 | {^c}d3d =cBcd |1 e2B3 AGF :|2 e2B4 z2 |: "C"e2d>c "G"B4 | "D7"AGAF "G"G3F |
| "D7"DzF3 DEF | "G"GABc dBG2 | "C"e2d>c "G"B4 | "D7"AGAF "G"G4 | "B7"FGAF GEF^D |
|1 "Em"E2FG ABcd :|2 "Em"EB,"B7"C^D "Em"E2z2 :: "G"BGcG BGcG | ~B3A AGGA | BGcG BGcAG |
| "G"GABc dBG2 | BGcG BGAG | "Am"FGA3 FGA | "B7"_BAAG GFFE |1 "Em"EB,C^D EFGA :|2 "Em"EB,"B7"C^D "Em"E :|
